X: 1101
T: PROMENADE QUICK-STEP
B: Oliver Ditson "The Boston Collection of Instrumental Music" 1910 p.110 #1
F: http://conquest.imslp.info/files/imglnks/usimg/8/8f/IMSLP175643-PMLP309456-bostoncollection00bost_bw.pdf
%: 2012 John Chambers <jc:trillian.mit.edu>
M: 6/8
L: 1/8
K: G
%%indent 450
d/e/f/ |\
g2z B2z | c2z e2z | d2z ezf | g3 z ||
|: DG |\
BGB dz^c | (d3 B)DG | BGB dz^c | (d3 B)zG |\
A2A A2A | A2A A2A | ^G2A BcA | G3 z2 :|
|: G |\
e3-  edc | d3- dcB | A2D E2F | G2A BAG |\
EF^G A3  | DGA B3  | dcB  ABA | G3  z2 H:|
K: C
G |\
EzG ^FzG | AzG Gzc | czB Bzd | dzc czG |\
EzG ^FzG | AzG GzA | czB BzA | G3 z2 :|
|: G |\
=f2z e2z | d2z c2z | BcB ABA | GGG G2G |\
B2z c2z | d2z e2z | dcB c2A | GGG G2G |
EzG ^FzG | Az=F (d2c) | cBA G^FG | (A2G) EzG |\
EzG ^FzG | Az=F c3- | cBA GFE | C3 "^da Capo"z2 :|

%%sep 1 1 500
%%sep 1 1 500
